X: 2
T: "615" polska efter Gunnar Orre
T: \"Alvdalspolska
R: \"Alvdalspolska
Z: 2005 John Chambers <jc@trillian.mit.edu>
S: handwritten MS labelled "H-99"
M: 9/8
L: 1/8
K: Am
|:e2 ^g2 b2 a3  | a2  gage f2g \
| f2e   d2e f2g | a2  fdfd e3  \
| e2 ^g2 b2 a3  | a2  gage f2g \
| f2   ed2f a2f | (2fe  e6    :|
|:B2   cBcd e2c | B2 A2 B2 c3  \
| B2   cBcd e2c | B2 A2 G2 E3  \
| B2   cBcd e2c | B2 A2 B2 c3  \
| B2   cBcd e2c | BGB   A6    :|
%%sep 1 1 10cm
